X:1
T:Title
%%score ( 1 2 ) ( 3 4 )
L:1/8
Q:1/4=60
M:6/8
K:Ab
V:1 treble nm="Strings 1, Treble"
V:2 treble 
V:3 bass nm="Strings 1, Bass"
V:4 bass 
V:1
 z3 z2 [CE] | [Ec]2 [Ec] [Ec][DB][CA] | BA[DF] [CE]2 [CE] | [CA]2 [CA] cB[EA] | [EB]3- [EB]2 E | %5
w: 1.~For~|per fect~ love~ * I~|long~ * have~ groaned,~ I~|would~ be~ whol * ly~|Thine;~ * Yes,~|
 [Ec]2 [Ec] [Ec][DB][CA] | BA[DF] [CE]2 [CE] | AG[EA] [Ec]2 [DB] | [CA]3- [CA]2 [CE] | %9
w: I~ would~ have~ * the~|Lord~ * en throned~ In~|this~ * poor~ heart~ of~|mine.~ * *|
 [EA]2 [EB] cB[Ec] | [Ee]3- [Ee]2 [CE] | [EA]2 [EB] cB[Ec] | [Ee]3- [Ee]2 [CE] | %13
w: ||||
 [Ec]2 [EA] BA[DF] | [CE]3- [CE]2 [DF] | [CE]2 [EA] GA[EB] | [EA]6 |] %17
w: ||||
V:2
 x6 | x6 | .D3 z3 | z3 .E3 | x6 | x6 | .D3 z3 | .E3 z3 | x6 | z3 .E3 | x6 | z3 .E3 | x6 | z3 .F3 | %14
 x6 | z3 .E3 | x6 |] %17
V:3
 z3 z2 [A,,A,] | [A,,A,]2 [A,,A,] [A,,A,]2 [A,,E,] | [D,F,]2 [D,A,] [A,,A,]2 [A,,A,] | %3
 [A,,E,]2 [A,,E,] [A,,A,][B,,G,][C,A,] | [E,G,]3- [E,G,]2 [E,G,] | %5
 [A,,A,]2 [A,,A,] [A,,A,]2 [A,,E,] | [D,F,]2 [D,A,] [A,,A,]2 [A,,A,] | .C3 z3 | %8
 [A,,A,]3- [A,,A,]2 [A,,A,] | [C,A,]2 [E,G,] A,2 A, | [A,C]3- [A,C]2 [A,,A,] | %11
 [C,A,]2 [E,G,] A,2 A, | [A,C]3- [A,C]2 [A,,A,] | [A,,A,]2 [C,A,] [D,A,]2 [D,A,] | %14
 [A,,A,]3- [A,,A,]2 [D,A,] | z3 .B,3 | [A,,C]6 |] %17
V:4
 x6 | x6 | x6 | x6 | x6 | x6 | x6 | E,-[E,B,][E,C] [E,A,]2 [E,G,] | x6 | x6 | x6 | x6 | x6 | x6 | %14
 x6 | [E,A,]2 [E,C] E,-[E,C][E,D] | x6 |] %17

